src/symbolic/actions/insert-image-symbolic.svg

<?xml version="1.0" encoding="UTF-8" standalone="no"?>
<svg
   xmlns:osb="http://www.openswatchbook.org/uri/2009/osb"
   xmlns:dc="http://purl.org/dc/elements/1.1/"
   xmlns:cc="http://creativecommons.org/ns#"
   xmlns:rdf="http://www.w3.org/1999/02/22-rdf-syntax-ns#"
   xmlns:svg="http://www.w3.org/2000/svg"
   xmlns="http://www.w3.org/2000/svg"
   xmlns:sodipodi="http://sodipodi.sourceforge.net/DTD/sodipodi-0.dtd"
   xmlns:inkscape="http://www.inkscape.org/namespaces/inkscape"
   width="16.000132"
   version="1.1"
   style="enable-background:new"
   id="svg7384"
   height="15.99995"
   inkscape:version="0.91 r"
   sodipodi:docname="insert-image-symbolic.svg">
  <sodipodi:namedview
     pagecolor="#ffffff"
     bordercolor="#666666"
     borderopacity="1"
     objecttolerance="10"
     gridtolerance="10"
     guidetolerance="10"
     inkscape:pageopacity="0"
     inkscape:pageshadow="2"
     inkscape:window-width="1920"
     inkscape:window-height="1023"
     id="namedview66"
     showgrid="false"
     inkscape:zoom="14.750046"
     inkscape:cx="-1.288041"
     inkscape:cy="7.9999752"
     inkscape:window-x="0"
     inkscape:window-y="27"
     inkscape:window-maximized="1"
     inkscape:current-layer="svg7384" />
  <metadata
     id="metadata90">
    <rdf:RDF>
      <cc:Work
         rdf:about="">
        <dc:format>image/svg+xml</dc:format>
        <dc:type
           rdf:resource="http://purl.org/dc/dcmitype/StillImage" />
        <dc:title>Moka Symbolic Icon Theme</dc:title>
      </cc:Work>
    </rdf:RDF>
  </metadata>
  <title
     id="title8473">Moka Symbolic Icon Theme</title>
  <defs
     id="defs7386">
    <linearGradient
       osb:paint="solid"
       id="linearGradient5606">
      <stop
         style="stop-color:#000000;stop-opacity:1;"
         offset="0"
         id="stop5608" />
    </linearGradient>
    <filter
       style="color-interpolation-filters:sRGB"
       id="filter7554">
      <feBlend
         mode="darken"
         in2="BackgroundImage"
         id="feBlend7556" />
    </filter>
  </defs>
  <path
     inkscape:connector-curvature="0"
     d="M 4.99986,12 8.00011,15.99995 10.99986,12 Z"
     id="path8519"
     style="fill:#bebebe;fill-opacity:1;stroke:none" />
  <path
     inkscape:connector-curvature="0"
     d="m 1.99986,0 0,10 6,0 6,0 0,-10 -6,0 z m 1,1 10,0 0,8 -10,0 z m 3.5,2 -2.5,2.5 0,2.5 8,0 0,-2 -1.25,-1.25 -1.25,1.25 z"
     id="path8521"
     style="color:#000000;display:inline;overflow:visible;visibility:visible;fill:#bebebe;fill-opacity:1;fill-rule:nonzero;stroke:none;stroke-width:6;marker:none;enable-background:accumulate" />
</svg>

<svg xmlns="http://www.w3.org/2000/svg" width="16" height="16"><path d="M5 12l3 4 3-4z" fill="#5d656b"/><path d="M2 0v10h12V0H8zm1 1h10v8H3zm3.5 2L4 5.5V8h8V6l-1.25-1.25L9.5 6z" style="marker:none" color="#000" overflow="visible" fill="#5d656b"/></svg>
